X:1
T:Title
%%score { ( 1 3 ) | ( 2 4 ) }
L:1/8
Q:1/4=100
M:4/4
K:F
V:1 treble nm="Grand Piano"
V:3 treble 
V:2 bass 
V:4 bass 
V:1
 A4 B2 A2 | G4 F4 | [DG]2 [DB]2 [EA]2 [E_A]2 | A8 | D4 z4 | A4 z4 | [A,F]2 [CFA]2 [Fc]2 [F=B]2 | %7
w: S.~M.~Bixby * *|||||||
 [Ec]8 | c4 d2 A2 | [_Ec]4 [DB]4 | [EG]2 [EB]2 [CFA]2 [A,F]2 | [CEG]8 | [C_EA]4 [B,EG]2 [A,EF]2 | %13
w: ||||||
 z4[K:bass] D4 | C2 F2 G2 E2 | F8 |] %16
w: |||
V:2
 [F,CF]4 [F,DF]2 [F,CF]2 | [F,B,E]4 [F,A,]4 | [B,,B,]2 [B,,G,]2 [C,C]2 [C,C]2 | [F,CF]8 | %4
 B,2 z2 [B,,G,]2 [A,,F,]2 | [F,C]2 A,2 C,4 | D,2 D,2 [D,A,]2 [G,,G,]2 | G,4 z4 | %8
 [F,A,_E]4 [F,A,E]2 [F,CE]2 | [B,,F,A,]4 [B,,B,]4 | [C,B,]2 [C,G,]2 C,2 C,2 | C,8 | F,4 F,2 F,2 | %13
 B,,4 B,,4 | [C,A,]2 [C,A,C]2 [C,C]2 [C,G,C]2 | [F,A,C]8 |] %16
V:3
 x8 | x8 | x8 | x8 | z2 A,2 [CE]2 [CF]2 | z2 F2 [CEG]4 | x8 | z4 B,4 | x8 | x8 | x8 | x8 | x8 | %13
 [B,DF]4[K:bass] F,2 G,2 | x8 | x8 |] %16
V:4
 x8 | x8 | x8 | x8 | B,,4 z4 | C,4 z4 | x8 | C,8 | x8 | x8 | x8 | x8 | x8 | x8 | x8 | x8 |] %16

